X:856
T: Eresz alá fészkel a fecske
Q: 1/4=108
L:1/4
M:4/4
K:G
D/G/F/G/ A>B | A<G G z |
e/d/c/B/ d>c | B<A A z |
e/d/c/B/ d G | D/F/A/c/ | B<A d z |
D/G/F/G/ A>B | A<G G z |

